X:0250
T:A Favourite Strathspey.
M:C
L:1/8
Q:1/4=120
I: :: ||
Z:Jack Campin * www.campin.me.uk * 2009
K:D
A>FDA  F>DAF|A>BAF E/E/E E2|A>FDA F>DAF |d>efA F/F/F F2:|
d>ef>d e>cdB|A>FdF E/E/E E2|d>efd e>Bd>B|AFdA  F/F/F F2 |
d>efd e>cd>B|A>FdF E/E/E E2|A>FDA F>DA>F|d>efA F/F/F F2:|

